**kern	**kern	**dynam
*part1	*part1	*part1
*staff2	*staff1	*
*I"Piano	*	*
*clefF4	*clefG2	*
*k[b-e-a-]	*k[b-e-a-]	*
=1	=1	=1
2BB-	4r	.
.	4A- 4d 4f	.
=	=	=
2r	4A- 4d 4f	.
.	4A- 4d 4f	.
=	=	=
4E-	4r	.
4r	4G 4B- 4e-	.
=	=	=
!	!LO:TX:b:i:t=cresc.	!
4D	4r	.
4r	4G 4Bn 4f	.
=	=	=
2C	4r	.
.	4c 4e- 4g	.
=	=	=
2r	4c^ 4e- 4a-	.
.	4c 4e- 4g	.
=	=	=
2GG	4r	.
.	4Bn 4f 4g	.
=	=	=
2r	4Bn^ 4f 4a-	.
.	4B 4f 4g	.
=	=	=
2C	8cL 8e-	f
.	8g	.
.	8G	.
.	8gJ	.
=	=	=
2GG	8dL 8f	.
.	8g	.
.	8G	.
.	8gJ	.
=	=	=
*-	*-	*-
!!!system-decoration: {(s1,s2)}
